src/assets/social-media/medium.svg

<svg fill="none" height="14" viewBox="0 0 25 14" width="25" xmlns="http://www.w3.org/2000/svg" xmlns:xlink="http://www.w3.org/1999/xlink"><radialGradient id="a" cx="0" cy="0" gradientTransform="matrix(0 13.6303 -24 0 12.3334 .184814)" gradientUnits="userSpaceOnUse" r="1"><stop offset="0" stop-color="#fff"/><stop offset="1" stop-color="#fff" stop-opacity=".3"/></radialGradient><path d="m13.8708 7.0001c0 3.7639-3.0305 6.8151-6.76859 6.8151-3.73811 0-6.768836-3.0519-6.768836-6.8151 0-3.76317 3.030496-6.815286 6.768836-6.815286 3.73829 0 6.76859 3.051426 6.76859 6.815286zm7.4254 0c0 3.5429-1.5152 6.4161-3.3844 6.4161s-3.3844-2.8732-3.3844-6.4161c0-3.54286 1.515-6.416064 3.3842-6.416064 1.8691 0 3.3844 2.872284 3.3844 6.416064m3.0374 0c0 3.1735-.5329 5.7478-1.1903 5.7478-.6575 0-1.1901-2.5736-1.1901-5.7478 0-3.17423.5328-5.74778 1.1901-5.74778.6572 0 1.1903 2.57332 1.1903 5.74778z" fill="url(#a)"/></svg>

<svg width="25" height="14" viewBox="0 0 25 14" fill="none" xmlns="http://www.w3.org/2000/svg">
<path d="M13.8708 7.0001C13.8708 10.764 10.8403 13.8152 7.10221 13.8152C3.3641 13.8152 0.333374 10.7633 0.333374 7.0001C0.333374 3.23693 3.36387 0.184814 7.10221 0.184814C10.8405 0.184814 13.8708 3.23624 13.8708 7.0001ZM21.2962 7.0001C21.2962 10.543 19.781 13.4162 17.9118 13.4162C16.0426 13.4162 14.5274 10.543 14.5274 7.0001C14.5274 3.45724 16.0424 0.584036 17.9116 0.584036C19.7807 0.584036 21.296 3.45632 21.296 7.0001M24.3334 7.0001C24.3334 10.1736 23.8005 12.7479 23.1431 12.7479C22.4856 12.7479 21.953 10.1743 21.953 7.0001C21.953 3.82587 22.4858 1.25232 23.1431 1.25232C23.8003 1.25232 24.3334 3.82564 24.3334 7.0001Z" fill="url(#paint0_radial_7462_3941)"/>
<defs>
<radialGradient id="paint0_radial_7462_3941" cx="0" cy="0" r="1" gradientUnits="userSpaceOnUse" gradientTransform="translate(12.3334 0.184814) rotate(90) scale(13.6303 24)">
<stop stop-color="white"/>
<stop offset="1" stop-color="white" stop-opacity="0.3"/>
</radialGradient>
</defs>
</svg>
